src/assets/IconAppealingInactive.svg

<svg width="555" height="555" fill="none" xmlns="http://www.w3.org/2000/svg"><path fill-rule="evenodd" clip-rule="evenodd" d="M277.436 554.231c153.046 0 277.115-124.069 277.115-277.116C554.551 124.069 430.482 0 277.436 0 124.389 0 .32 124.069.32 277.115c0 153.047 124.069 277.116 277.116 277.116z" fill="#FFF3EF"/><g opacity=".7"><path opacity=".691" d="M203.14 241.082a38.181 38.181 0 00-27.083-11.226c-21.157-.005-38.313 17.141-38.319 38.298-.005 21.158 17.141 38.314 38.298 38.319 21.158.006 38.314-17.14 38.319-38.298a38.304 38.304 0 00-11.215-27.093z" fill="url(#paint0_linear)"/><path opacity=".668" fill-rule="evenodd" clip-rule="evenodd" d="M177.571 318.418h-4.07c-42.804.107-77.477 35.189-77.583 78.497v5.544c0 3.044 2.439 5.512 5.448 5.512h148.309c3.009 0 5.448-2.468 5.448-5.512v-5.544c-.124-43.289-34.767-78.354-77.552-78.497z" fill="url(#paint1_linear)"/></g><path d="M439.139 129.542a149.213 149.213 0 00-88.063-27.035 149.217 149.217 0 00-88.063 27.035c-23.396 17.243-37.808 41.232-37.808 67.94a75.046 75.046 0 008.61 34.672 93.023 93.023 0 0019.606 25.349l-19.98 41.56c-1.913 3.932-.28 8.672 3.647 10.586a7.9 7.9 0 007.676-.418l45.95-28.394a151.044 151.044 0 0027.046 8.199 165.572 165.572 0 0033.316 3.374 149.22 149.22 0 0088.063-27.036c23.396-17.242 37.808-41.232 37.808-67.939 0-26.708-14.458-50.65-37.808-67.893z" fill="url(#paint2_linear)"/><defs><linearGradient id="paint0_linear" x1="156.041" y1="218.745" x2="229.698" y2="273.799" gradientUnits="userSpaceOnUse"><stop stop-color="#fff"/><stop offset="1" stop-color="#FFB6B6"/></linearGradient><linearGradient id="paint1_linear" x1="133.95" y1="305.431" x2="220.207" y2="420.048" gradientUnits="userSpaceOnUse"><stop stop-color="#fff"/><stop offset="1" stop-color="#FFB6B6"/></linearGradient><linearGradient id="paint2_linear" x1="285.343" y1="72.329" x2="492.76" y2="259.999" gradientUnits="userSpaceOnUse"><stop stop-color="#FFEFE0"/><stop offset="1" stop-color="#FBB"/></linearGradient></defs></svg>

<svg width="555" height="555" viewBox="0 0 555 555" fill="none" xmlns="http://www.w3.org/2000/svg">
<path fill-rule="evenodd" clip-rule="evenodd" d="M277.436 554.231C430.482 554.231 554.551 430.162 554.551 277.115C554.551 124.069 430.482 0 277.436 0C124.389 0 0.320312 124.069 0.320312 277.115C0.320312 430.162 124.389 554.231 277.436 554.231Z" fill="#FFF3EF"/>
<g opacity="0.7">
<path opacity="0.690523" d="M203.14 241.082C195.966 233.885 186.219 229.845 176.057 229.856C154.9 229.851 137.744 246.997 137.738 268.154C137.733 289.312 154.879 306.468 176.036 306.473C197.194 306.479 214.35 289.333 214.355 268.175C214.358 258.014 210.324 248.268 203.14 241.082Z" fill="url(#paint0_linear)"/>
<path opacity="0.668271" fill-rule="evenodd" clip-rule="evenodd" d="M177.571 318.418H173.501C130.697 318.525 96.0237 353.607 95.918 396.915V402.459C95.918 405.503 98.3567 407.971 101.366 407.971H249.675C252.684 407.971 255.123 405.503 255.123 402.459V396.915C254.999 353.626 220.356 318.561 177.571 318.418Z" fill="url(#paint1_linear)"/>
</g>
<path d="M439.139 129.542C413.363 111.465 382.542 102.004 351.076 102.507C319.611 102.004 288.79 111.465 263.013 129.542C239.617 146.785 225.205 170.774 225.205 197.482C225.243 209.565 228.196 221.461 233.815 232.154C238.836 241.676 245.47 250.253 253.421 257.503L233.441 299.063C231.528 302.995 233.161 307.735 237.088 309.649C239.547 310.848 242.45 310.69 244.764 309.231L290.714 280.837C299.454 284.409 308.509 287.155 317.76 289.036C328.724 291.284 339.886 292.414 351.076 292.41C382.542 292.912 413.363 283.451 439.139 265.374C462.535 248.132 476.947 224.142 476.947 197.435C476.947 170.727 462.489 146.785 439.139 129.542Z" fill="url(#paint2_linear)"/>
<defs>
<linearGradient id="paint0_linear" x1="156.041" y1="218.745" x2="229.698" y2="273.799" gradientUnits="userSpaceOnUse">
<stop stop-color="white"/>
<stop offset="1" stop-color="#FFB6B6"/>
</linearGradient>
<linearGradient id="paint1_linear" x1="133.95" y1="305.431" x2="220.207" y2="420.048" gradientUnits="userSpaceOnUse">
<stop stop-color="white"/>
<stop offset="1" stop-color="#FFB6B6"/>
</linearGradient>
<linearGradient id="paint2_linear" x1="285.343" y1="72.3291" x2="492.76" y2="259.999" gradientUnits="userSpaceOnUse">
<stop stop-color="#FFEFE0"/>
<stop offset="1" stop-color="#FFBBBB"/>
</linearGradient>
</defs>
</svg>
